X: 1
M: 6/8
L: 1/8
K: A
V: 1 staves=2
E |\
(Ac).e (Ad).f | (Bd.g) a2c | (db).d (ca).c | (dB)A (GB)E |\
(Ac).e (Ad).f | (Bd.g) a2c | (db).d (ca).c | {e}dcB A2 :|
(EG).B (EA).c | (Bc).d (dc).B | cAc dBd | (ec).A (GF).E |\
(EG).B (EA).c | (Bc).d (dc).B | (cA).c (^dB).a | (ga).f "^D.C."e2 |]
V: 2 clef=bass middle=d
z |\
a3 d3 | e3 a2A | e3 e3 | e3 e3 |\
a3 d3 | e3 a2A | e3 e3 | d2e A2 :|
z |\
e3 e3 | e3 e3 | a3 e3 | c2^d e3 |\
e3 e3 | e3 e3 | a3 a3 | b2B "^D.C."e2 |]


